assets/icons/qvision/settings_remote.svg

<svg xmlns="http://www.w3.org/2000/svg" height="24" viewBox="0 0 24 24" width="24"><path d="M0 0h24v24H0z" fill="none"/><path d="M15 9H9c-.55 0-1 .45-1 1v12c0 .55.45 1 1 1h6c.55 0 1-.45 1-1V10c0-.55-.45-1-1-1zm-3 6c-1.1 0-2-.9-2-2s.9-2 2-2 2 .9 2 2-.9 2-2 2zM7.05 6.05l1.41 1.41C9.37 6.56 10.62 6 12 6s2.63.56 3.54 1.46l1.41-1.41C15.68 4.78 13.93 4 12 4s-3.68.78-4.95 2.05zM12 0C8.96 0 6.21 1.23 4.22 3.22l1.41 1.41C7.26 3.01 9.51 2 12 2s4.74 1.01 6.36 2.64l1.41-1.41C17.79 1.23 15.04 0 12 0z"/></svg>

<svg width="24" height="24" viewBox="0 0 24 24" fill="none" xmlns="http://www.w3.org/2000/svg">
<g clip-path="url(#clip0_147_4741)">
<path d="M15 9H9C8.45 9 8 9.45 8 10V22C8 22.55 8.45 23 9 23H15C15.55 23 16 22.55 16 22V10C16 9.45 15.55 9 15 9ZM12 15C10.9 15 10 14.1 10 13C10 11.9 10.9 11 12 11C13.1 11 14 11.9 14 13C14 14.1 13.1 15 12 15ZM7.05 6.05L8.46 7.46C9.37 6.56 10.62 6 12 6C13.38 6 14.63 6.56 15.54 7.46L16.95 6.05C15.68 4.78 13.93 4 12 4C10.07 4 8.32 4.78 7.05 6.05ZM12 0C8.96 0 6.21 1.23 4.22 3.22L5.63 4.63C7.26 3.01 9.51 2 12 2C14.49 2 16.74 3.01 18.36 4.64L19.77 3.23C17.79 1.23 15.04 0 12 0Z" fill="#323232"/>
</g>
<defs>
<clipPath id="clip0_147_4741">
<rect width="24" height="24" fill="white"/>
</clipPath>
</defs>
</svg>
